X: 164
%
U:~=!turn!
T: Earl of Dalkeith
C:
O:Scotland
B:Keith Norman MacDonald : "The Skye collection of the best reels & strathspeys extant" : 1887
Z:Ralph Palmer
R:Reel
M:C|
L:1/8
K:F
A | {/E}FCA,C F/F/F (AF) | G/G/G (BA) {/^F}GDDG | {/E}FCA,C F/F/F (Ac) | dfcf AFF :| c | T(fg)ag Tfefc | d/d/d ba gdde |
T(fg)ag TfcdB | AcGB AFFc | Tfgag Tfdfc | d/d/d (ba) gdde | fcae fcdB | AcGc AF~F |]


